X:472
T: WELLE GROSS WUNDER SCHAUEN WILL
N: F0888
O: Europa, Mitteleuropa, Deutschland
R: erzaehlendes Volks - Lied, Ballade, Tannhaeuser
M: 3/4
L: 1/8
K: C
G, | CB,C2D2 | B,A,G,2
C2 | GGFEC2 | C2D2z
C | EFG2C2 | DEF2
D2 | ECD2C2 | B,2C2z

